X:1
T:Title
%%score ( 1 2 3 ) { 4 | 5 }
L:1/8
Q:1/4=125
M:3/4
K:C
V:1 treble nm="Grand Piano, Soprano"
V:2 treble 
V:3 treble 
V:4 treble nm="Choir Pad, My Mother Has Gone on Home"
V:5 bass 
V:1
 [EG]2 [EG]2 [EG]2 | z2 G4 | [FG]2 [EG]4 | [DG]2 [Ec]2 [Ec]2 | z2 G4 | [Gc]2 [Gd]4 | %6
w: By~C.~A.~Brock * *||||||
 [Ec]2 [Ge]2 [Ge]2 | [Ge]2 [Ac]4 | [FA]2 [EG]4 | [CE]2 [CG]2 [CG]2 | [CG]2 [CE]4 | [B,D]2 C4 | %12
w: ||||||
[M:4/4][Q:1/4=75] (3[CE][CE][DF] [EG][EG] [EG][EG][EG][FA] | %13
w: |
 (3[EG][EG][EA] [Ec][Ec] [Ec][Ec][Ge][Ec] | (3[Fc][Fc][Fc] [DG][DG] [EG][EG][EG][EG] | %15
w: ||
 (3[EA][EG][CE] [B,D]6 | (3[CE][CE][DF] [EG][EG] [EG][EG][FA][EG] | %17
w: ||
 (3[EG][EG][EA] [Ec][Ec] [Ec][Ec][Ge][Ec] | (3[Ac][Ac][Ac] [Ge][Ge] [ce][Ae][Ge][Gc] | z2 c6 | %20
w: |||
 z8 |] %21
w: |
V:2
 x6 | [EG]2 E2 D2 | x6 | x6 | [Ec]2 E2 F2 | x6 | x6 | x6 | x6 | x6 | x6 | x6 |[M:4/4] x8 | x8 | %14
 x8 | x8 | x8 | x8 | x8 | (3[Fd][Fd][Fd] z E (3_E=EF E2- | E6 z2 |] %21
V:3
 x6 | x6 | x6 | x6 | x6 | x6 | x6 | x6 | x6 | x6 | x6 | x6 |[M:4/4] x8 | x8 | x8 | x8 | x8 | x8 | %18
 x8 | z2 .E2 z4 | x8 |] %21
V:4
 C2 C2 C2 | C2 C2 B,2 | D2 C4 | D2 C2 C2 | C2 C2 B,2 | C2 B,4 | C2 C2 C2 | C2 C4 | C2 C4 | %9
 G,2 E,2 E,2 | G,2 G,4 | F,2 E,4 |[M:4/4] (3G,G,G,[K:treble] CC CCCC | (3CCC[K:bass] G,G, G,G,CG, | %14
 (3A,A,A, B,B, B,B,[K:treble]CC | (3CCG,[K:bass] G,G, (3G,G,G, G,2 | (3G,G,G,[K:treble] CC CCCC | %17
 (3CCC[K:bass] G,G, G,G,C[K:treble]C | (3CCC CC CCCC | (3B,B,B, CG, (3^F,G,A, G,2- | G,6 z2 |] %21
V:5
 C,2 C,2 C,2 | C,2 G,4 | G,,2 C,4 | B,,2 A,,2 A,,2 | A,,2 C,2 D,2 | E,2 G,4 | C,2 C,2 C,2 | %7
 C,2 F,4 | F,2 C,4 | C,2 C,2 C,2 | E,2 z2 z2 | G,,2 C,4 |[M:4/4] (3C,C,C, C,C, C,C,C,C, | %13
 (3C,C,C, C,C, C,C,C,C, | (3F,F,F, G,G, E,E,C,C, | (3C,C,C, G,,G,, (3G,,G,,G,, G,,2 | %16
 (3C,C,C, C,C, C,C,C,C, | (3C,C,C, C,C, C,C,C,C, | (3F,F,F, G,G, A,A,E,E, | (3G,G,G, C,6 | z8 |] %21

